icons-rebrand/svg/battery-high-bold.svg

<svg width="32" height="32" viewBox="0 0 32 32" fill="none" xmlns="http://www.w3.org/2000/svg">
<path d="M25 6H11C9.67441 6.00159 8.40356 6.52888 7.46622 7.46622C6.52888 8.40356 6.00159 9.67441 6 11V12H5C4.20459 12.0008 3.44199 12.3171 2.87956 12.8796C2.31712 13.442 2.00079 14.2046 2 15V17C2.00079 17.7954 2.31712 18.558 2.87956 19.1204C3.44199 19.6829 4.20459 19.9992 5 20H6V21C6.00159 22.3256 6.52888 23.5964 7.46622 24.5338C8.40356 25.4711 9.67441 25.9984 11 26H25C26.3256 25.9984 27.5964 25.4711 28.5338 24.5338C29.4711 23.5964 29.9984 22.3256 30 21V11C29.9984 9.67441 29.4711 8.40356 28.5338 7.46622C27.5964 6.52888 26.3256 6.00159 25 6ZM6 18H5C4.73478 18 4.48043 17.8946 4.29289 17.7071C4.10536 17.5196 4 17.2652 4 17V15C4 14.7348 4.10536 14.4804 4.29289 14.2929C4.48043 14.1054 4.73478 14 5 14H6V18ZM28 21C27.9989 21.7953 27.6825 22.5578 27.1202 23.1202C26.5578 23.6825 25.7953 23.9989 25 24H11C10.2047 23.9989 9.44223 23.6825 8.87985 23.1202C8.31747 22.5578 8.00106 21.7953 8 21V11C8.00079 10.2046 8.31712 9.44199 8.87956 8.87956C9.44199 8.31712 10.2046 8.00079 11 8H25C25.7954 8.00079 26.558 8.31712 27.1204 8.87956C27.6829 9.44199 27.9992 10.2046 28 11V21Z" fill="#0F0F0F"/>
<path d="M13 10C12.8686 9.99961 12.7384 10.0252 12.6169 10.0753C12.4953 10.1254 12.385 10.1991 12.292 10.292C12.1991 10.385 12.1254 10.4953 12.0753 10.6169C12.0252 10.7384 11.9996 10.8686 12 11V21C12 21.2652 12.1054 21.5196 12.2929 21.7071C12.4804 21.8946 12.7348 22 13 22C13.2652 22 13.5196 21.8946 13.7071 21.7071C13.8946 21.5196 14 21.2652 14 21V11C13.9995 10.735 13.8939 10.4809 13.7065 10.2935C13.5191 10.1061 13.2651 10.0005 13 10ZM18 10.013C17.8686 10.0126 17.7384 10.0382 17.6169 10.0883C17.4953 10.1384 17.385 10.2121 17.292 10.305C17.1991 10.398 17.1254 10.5083 17.0753 10.6299C17.0252 10.7514 16.9996 10.8816 17 11.013V21.013C17 21.2782 17.1054 21.5326 17.2929 21.7201C17.4804 21.9076 17.7348 22.013 18 22.013C18.2652 22.013 18.5196 21.9076 18.7071 21.7201C18.8946 21.5326 19 21.2782 19 21.013V11.013C18.9995 10.7479 18.8939 10.4939 18.7065 10.3065C18.5191 10.1191 18.2651 10.0135 18 10.013ZM23 10.013C22.8686 10.0126 22.7384 10.0382 22.6169 10.0883C22.4953 10.1384 22.385 10.2121 22.292 10.305C22.1991 10.398 22.1254 10.5083 22.0753 10.6299C22.0252 10.7514 21.9996 10.8816 22 11.013V21.013C22 21.2782 22.1054 21.5326 22.2929 21.7201C22.4804 21.9076 22.7348 22.013 23 22.013C23.2652 22.013 23.5196 21.9076 23.7071 21.7201C23.8946 21.5326 24 21.2782 24 21.013V11.013C23.9995 10.7479 23.894 10.4939 23.7065 10.3065C23.5191 10.1191 23.2651 10.0135 23 10.013Z" fill="#0F0F0F"/>
</svg>

<svg width="32" height="32" viewBox="0 0 32 32" fill="none" xmlns="http://www.w3.org/2000/svg"><path d="M25 6H11a5.006 5.006 0 0 0-5 5v1H5a3.003 3.003 0 0 0-3 3v2a3.003 3.003 0 0 0 3 3h1v1a5.006 5.006 0 0 0 5 5h14a5.006 5.006 0 0 0 5-5V11a5.006 5.006 0 0 0-5-5zM6 18H5a1 1 0 0 1-1-1v-2a1 1 0 0 1 1-1h1v4zm22 3a3.004 3.004 0 0 1-3 3H11a3.004 3.004 0 0 1-3-3V11a3.003 3.003 0 0 1 3-3h14a3.003 3.003 0 0 1 3 3v10z" fill="#0F0F0F"/><path d="M13 10a.997.997 0 0 0-1 1v10a1 1 0 1 0 2 0V11a1.002 1.002 0 0 0-1-1zM18 10.013a.997.997 0 0 0-1 1v10a1 1 0 1 0 2 0v-10a1.002 1.002 0 0 0-1-1zM23 10.013a.997.997 0 0 0-1 1v10a1 1 0 1 0 2 0v-10a1.002 1.002 0 0 0-1-1z" fill="#0F0F0F"/></svg>
